X:1
T:Title
L:1/8
Q:1/4=110
M:6/8
K:Ab
V:1 treble nm="Church Organ, Staff"
V:1
 A2 A AGF | E2 C- C/ z/ G2 | G c2 Bdc | d e2- e e2 | e/e/ c2 B A2 | A/A/ c2 c A2 | A/A/ c2 c A2 | %7
w: By~Bertha~C.~Boulter * * * *|||||||
 A c2 c A2 | AAc e f2 | G A2- A3- | A3 z3 |] %11
w: ||||

